vendor/symfony/debug-bundle/Resources/views/Profiler/icon.svg

<svg xmlns="http://www.w3.org/2000/svg" width="24" height="24" viewBox="0 0 24 24"><path fill="#AAA" d="M12 22.6c-5.8 0-10.5-4.7-10.5-10.5S6.2 1.5 12 1.5 22.5 6.2 22.5 12c0 5.9-4.7 10.6-10.5 10.6zm0-18.1c-4.2 0-7.5 3.4-7.5 7.5 0 4.2 3.4 7.5 7.5 7.5s7.5-3.4 7.5-7.5-3.3-7.5-7.5-7.5z"/><path fill="#AAA" d="M12 9.1c-.8 0-1.5-.7-1.5-1.5v-6c0-.8.7-1.5 1.5-1.5s1.5.7 1.5 1.5v6c0 .8-.7 1.5-1.5 1.5zm1.5 13.3v-6c0-.8-.7-1.5-1.5-1.5s-1.5.7-1.5 1.5v6c0 .8.7 1.5 1.5 1.5s1.5-.7 1.5-1.5zM23.9 12c0-.8-.7-1.5-1.5-1.5h-6c-.8 0-1.5.7-1.5 1.5s.7 1.5 1.5 1.5h6c.8 0 1.5-.7 1.5-1.5zM9.1 12c0-.8-.7-1.5-1.5-1.5h-6c-.8 0-1.5.7-1.5 1.5s.7 1.5 1.5 1.5h6c.8 0 1.5-.7 1.5-1.5z"/></svg>

<svg version="1.1" xmlns="http://www.w3.org/2000/svg" x="0px" y="0px" width="24" height="24" viewBox="0 0 24 24" enable-background="new 0 0 24 24" xml:space="preserve">
    <path fill="#AAAAAA" d="M12,22.6c-5.8,0-10.5-4.7-10.5-10.5C1.5,6.3,6.2,1.5,12,1.5s10.5,4.7,10.5,10.5C22.5,17.9,17.8,22.6,12,22.6z M12,4.5c-4.2,0-7.5,3.4-7.5,7.5c0,4.2,3.4,7.5,7.5,7.5s7.5-3.4,7.5-7.5C19.5,7.9,16.2,4.5,12,4.5z"/>
    <path fill="#AAAAAA" d="M12,9.1c-0.8,0-1.5-0.7-1.5-1.5v-6c0-0.8,0.7-1.5,1.5-1.5s1.5,0.7,1.5,1.5v6C13.5,8.4,12.8,9.1,12,9.1zM13.5,22.4v-6c0-0.8-0.7-1.5-1.5-1.5s-1.5,0.7-1.5,1.5v6c0,0.8,0.7,1.5,1.5,1.5S13.5,23.2,13.5,22.4z M23.9,12c0-0.8-0.7-1.5-1.5-1.5h-6c-0.8,0-1.5,0.7-1.5,1.5s0.7,1.5,1.5,1.5h6C23.2,13.5,23.9,12.8,23.9,12z M9.1,12c0-0.8-0.7-1.5-1.5-1.5h-6c-0.8,0-1.5,0.7-1.5,1.5s0.7,1.5,1.5,1.5h6C8.4,13.5,9.1,12.8,9.1,12z"/>
</svg>
